icons/t-shirt-air-line.svg

<svg xmlns="http://www.w3.org/2000/svg" width="24" height="24" fill="none"><g clip-path="url(#a)"><g><path fill="#121212" d="M12.707 17.793C13.534 18.62 14.295 19 15 19C15.378 19 15.68 18.933 16.237 18.724L16.629 18.572C17.679 18.15 18.209 18 19 18C20.214 18 21.379 18.545 22.486 19.58L22.707 19.793L21.293 21.207C20.466 20.38 19.705 20 19 20C18.622 20 18.32 20.067 17.763 20.276L17.371 20.428C16.321 20.849 15.791 21 15 21C13.786 21 12.621 20.455 11.514 19.42L11.293 19.207L12.707 17.793ZM9 3C9 3.79565 9.31607 4.55871 9.87868 5.12132C10.4413 5.68393 11.2044 6 12 6C12.7956 6 13.5587 5.68393 14.1213 5.12132C14.6839 4.55871 15 3.79565 15 3H21C21.2652 3 21.5196 3.10536 21.7071 3.29289C21.8946 3.48043 22 3.73478 22 4V11C22 11.2652 21.8946 11.5196 21.7071 11.7071C21.5196 11.8946 21.2652 12 21 12H16.998V10L20 9.999V4.999H16.583L16.566 5.04C16.1868 5.88785 15.579 6.61337 14.8107 7.13528C14.0424 7.65719 13.1439 7.95488 12.216 7.995L12 8C11.0344 8.00009 10.0894 7.72063 9.27918 7.19537C8.46894 6.67012 7.82808 5.92153 7.434 5.04L7.416 5H4V10L6.999 9.999V19H10V21H6C5.73478 21 5.48043 20.8946 5.29289 20.7071C5.10536 20.5196 5 20.2652 5 20L4.999 11.999L3 12C2.73478 12 2.48043 11.8946 2.29289 11.7071C2.10536 11.5196 2 11.2652 2 11V4C2 3.73478 2.10536 3.48043 2.29289 3.29289C2.48043 3.10536 2.73478 3 3 3H9ZM12.707 13.793C13.534 14.62 14.295 15 15 15C15.378 15 15.68 14.933 16.237 14.724L16.629 14.572C17.679 14.15 18.209 14 19 14C20.214 14 21.379 14.545 22.486 15.58L22.707 15.793L21.293 17.207C20.466 16.38 19.705 16 19 16C18.622 16 18.32 16.067 17.763 16.276L17.371 16.428C16.321 16.849 15.791 17 15 17C13.786 17 12.621 16.455 11.514 15.42L11.293 15.207L12.707 13.793Z"/></g></g><defs><clipPath id="a"><rect width="24" height="24" fill="white"/></clipPath></defs></svg>

<svg width="24" height="24" fill="none" xmlns="http://www.w3.org/2000/svg"><g clip-path="url(#a)"><path d="M12.707 17.793C13.534 18.62 14.295 19 15 19c.378 0 .68-.067 1.237-.276l.392-.152C17.679 18.15 18.209 18 19 18c1.214 0 2.379.545 3.486 1.58l.221.213-1.414 1.414C20.466 20.38 19.705 20 19 20c-.378 0-.68.067-1.237.276l-.392.152c-1.05.421-1.58.572-2.371.572-1.214 0-2.379-.545-3.486-1.58l-.221-.213 1.414-1.414ZM9 3a3 3 0 1 0 6 0h6a1 1 0 0 1 1 1v7a1 1 0 0 1-1 1h-4.002v-2L20 9.999v-5h-3.417l-.017.041a5.002 5.002 0 0 1-4.35 2.955L12 8a5 5 0 0 1-4.566-2.96L7.416 5H4v5l2.999-.001V19H10v2H6a1 1 0 0 1-1-1l-.001-8.001L3 12a1 1 0 0 1-1-1V4a1 1 0 0 1 1-1h6Zm3.707 10.793C13.534 14.62 14.295 15 15 15c.378 0 .68-.067 1.237-.276l.392-.152C17.679 14.15 18.209 14 19 14c1.214 0 2.379.545 3.486 1.58l.221.213-1.414 1.414C20.466 16.38 19.705 16 19 16c-.378 0-.68.067-1.237.276l-.392.152c-1.05.421-1.58.572-2.371.572-1.214 0-2.379-.545-3.486-1.58l-.221-.213 1.414-1.414Z" /></g><defs><clipPath id="a"><path fill="#fff" d="M0 0h24v24H0z"/></clipPath></defs></svg>
